!!!COM: Haydn, Franz Joseph 
!!!OPR: String Quartet in G Major 
!!!ONM: Opus 64, No. 4 
!!!OTL: Presto 
!!!OMV: 4 
!!!SCT: H III:66 
!!!SCA: Thematisch-bibliographisches Werkevererzeichnis (A. van Hoboken) 
!!!YOR: Trautwein Edition 
!!!EED: Frances Bennion 
!!!ENC: Frances Bennion 
!!!CDT: 1732/3/31/-1809/5/31/
!!!OCY: Österreich 
!!!YEC: Copyright (c) 1994, 2000 Center for Computer Assisted Research in the Humanities 
!!!YEM: Rights to all derivative editions reserved. 
!!!YEM: Refer to licensing agreement for further details. 
!!!YEN: United States of America 
**kern	**kern	**kern	**kern
*k[f#]	*k[f#]	*k[f#]	*k[f#]
*G:	*G:	*G:	*G:
*clefF	*clefF	*clefC3	*clefF4
*M6/8	*M6/8	*M6/8	*M6/8
*tb32	*tb32	*tb32	*tb32
=0-	=0-	=0-	=0-
2r	2r	2r	2r
8r	8r	8r	8r
8d	8r	8r	8r
=1	=1	=1	=1
8g	8d 8B	4.r	8GG
8f#	8d 8B	.	8G
8g	8d 8B	.	8G
4a	4.d 4.c	4.f#	8G
.	.	.	8G
8dd	.	.	8G
=2	=2	=2	=2
8g	8B 8d	8g	8GG
8f#	8B 8d	4r	8G
8g	8d 8B	.	8G
4a	4.d 4.c	4.f#	8G
.	.	.	8G
8dd	.	.	8G
=3	=3	=3	=3
8g	8B 8d	8g	8GG
8f#	8B 8d	4r	8G
8g	8d 8B	.	8G
4cc	4e 4c	4.g	4E
8ee	8g	.	8C
=4	=4	=4	=4
8dd	4G	8b	4BB
8ff#	.	2r	.
8gg	2r	.	2r
8bb	.	.	.
4r	.	.	.
.	.	8r	.
=5	=5	=5	=5
8dd	8b	2.r	2.r
16ee	16cc	.	.
16ff#	16dd	.	.
16gg	16ee	.	.
16aa	16ff#	.	.
4bb	4gg	.	.
8aa	8ff#	.	.
=6	=6	=6	=6
8gg	8ee	2.r	2.r
8ff#	8dd	.	.
8ee	8cc	.	.
8dd	8b	.	.
8cc	8a	.	.
8b	8g	.	.
=7	=7	=7	=7
4a	4f#	8D	2.r
.	.	8d	.
8b	8g	8d	.
8dd	8b	8d	.
8cc	8a	8d	.
8b	8g	8d	.
=8	=8	=8	=8
4a	4f#	8D	2.r
.	.	8d	.
8b	8g	8c#	.
8a	8f#	4d	.
8r	4r	.	.
8d	.	8r	.
=9	=9	=9	=9
8g	8d 8B	4.r	8GG
8f#	8d 8B	.	8G
8g	8d 8B	.	8G
4a	4.c 4.d	4.f#	8G
.	.	.	8G
8dd	.	.	8G
=10	=10	=10	=10
8g	8B 8d	8g	8GG
8f#	8d 8B	4r	8G
8g	8d 8B	.	8G
4a	4.c 4.d	4.f#	8G
.	.	.	8G
8dd	.	.	8G
=11	=11	=11	=11
8g	8d 8B	8g	8GG
8f#	8d 8B	4r	8G
8g	8d 8B	.	8G
4cc	4e 4c	4.g	4E
8ee	8g	.	8C
=12	=12	=12	=12
8dd	4G	8b	4BB
8ff#	.	2r	.
8gg	2r	.	2r
8bb	.	.	.
4r	.	.	.
.	.	8r	.
=13	=13	=13	=13
8dd	8b	2.r	2.r
16ee	16cc	.	.
16ff#	16dd	.	.
32gg	32ee	.	.
32aa	32ff#	.	.
32bb	32gg	.	.
32ccc	32aa	.	.
4ddd	4bb	.	.
8ccc	8aa	.	.
=14	=14	=14	=14
8bb	8gg	2.r	2.r
8aa	8ff#	.	.
8gg	8ee	.	.
8ff#	8dd	.	.
8ee	8cc	.	.
8dd	8b	.	.
=15	=15	=15	=15
4cc	4a	4.d	8D
.	.	.	8F#
8b	8g	.	8G
8a	4e	4e	8C
8cc	.	.	8AA
8f#	8c	8f#	8D
=16	=16	=16	=16
4.a	4.c	4.f#	8GG
.	.	.	8G
.	.	.	8G
8g	8B	8g	8G
8r	4r	8r	8G
8b	.	8d	8G
=17	=17	=17	=17
4dd	2.r	4f	8GG
.	.	.	8G
8cc	.	8e	8G
8b	.	8d	8G
8a	.	8c	8G
8g	.	8B	8G
=18	=18	=18	=18
8f#	2r	8A	8GG
8g	.	8B	8G
8a	.	8c	8G
8g	.	8B	8G
8r	8r	4r	8G
8dd	8b	.	8G
=19	=19	=19	=19
4ff	4dd	2.r	8GG
.	.	.	8G
8ee	8cc	.	8G
8dd	8b	.	8G
8cc	8a	.	8G
8b	8g	.	8G
=20	=20	=20	=20
8a	8f#	2.r	8GG
8b	8g	.	8G
8cc	8a	.	8G
4b	4g	.	4G
8dd	8d	.	8r
=21	=21	=21	=21
4gg	4g	8r	8r
.	.	8d	8B
8ff#	8f#	8c	8A
4aa	4a	8r	8r
.	.	8e	8c
8gg#	8g#	8d	8B
=22	=22	=22	=22
4bb	4b	8r	8r
.	.	8f	8d
8aa	8a	8e	8c
4ccc	4cc	8r	8r
.	.	8g	8e
8bb	8b	8f#	8d
=23	=23	=23	=23
8aa	8a	2.e	4.c
8aa	8a	.	.
8aa	8a	.	.
8aa	8a	.	4.c#
8bb	8b	.	.
8gg	8g	.	.
=24	=24	=24	=24
8ff#	2.f#	[2.d	4d
8aa	.	.	.
8ccc#	.	.	2r
8ddd	.	.	.
8aa	.	.	.
8ff#	.	.	.
=25	=25	=25	=25
8gg	2.e	4.d]	2r
8ff#	.	.	.
8gg	.	.	.
8ee	.	4.c#	.
8aa	.	.	8r
8gg	.	.	8AA
=26	=26	=26	=26
8ff#	8f#	8d	8D
8r	8e	8a	8C#
8dd	8f#	8a	8D
8dd	4g	4a	4E
8cc#	.	.	.
8gg	8c#	8e	8A
=27	=27	=27	=27
8ff#	8d	8f#	8D
8r	8a	8e	8C#
8dd	8a	8f#	8D
8dd	4a	4g	4E
8cc#	.	.	.
8gg	8ee	8c#	8A
=28	=28	=28	=28
4ff#	4ff#	8d	8d
.	.	8e	8c#
8aa	8ff#	8f#	8d
8aa	8ff#	8f#	8d
8gg	8ee	8g	8e
8ff#	8dd	8a	8f#
=29	=29	=29	=29
8ee	4b	8b	8g
8dd#	.	8b	8f#
8ee	8r	8b	8g
4ff#	4.dd#	4.b	4.a
8bb	.	.	.
=30	=30	=30	=30
8ee	8ee	8b	8g
8dd#	4r	8b	8f#
8ee	.	8b	8g
4ff#	4.dd#	4.b	4.a
8bb	.	.	.
=31	=31	=31	=31
8ee	8ee	8b	8g
8dd#	4r	8b	8f#
8ee	.	8b	8g
4ff#	4.dd#	4.b	4.a
8bb	.	.	.
=32	=32	=32	=32
8ee	8ee	8b	8g
8dd#	4r	8a	8f#
8ee	.	8b	8g
4gg	4cc#	4.a	4e
8ff#	8dd	.	8d
=33	=33	=33	=33
4.ee	8dd	4.b	4.g
.	8dd	.	.
.	8dd	.	.
8ff	8dd	4.g#	4.g#
8ee	8cc#	.	.
8ff	8dd	.	.
=34	=34	=34	=34
8ee	4cc#	4a	4a
8aa	.	.	.
8aa	8cc#	2r	2r
8gg#	8b	.	.
8bb	8dd	.	.
8ddd	8g#	.	.
=35	=35	=35	=35
8ccc#	8a	4e	4A
8eee	8cc#	.	.
8aa	8cc#	2r	2r
8gg#	8b	.	.
8bb	8dd	.	.
8dd	8g#	.	.
=36	=36	=36	=36
8cc#	4a	4e	4A
8ee	.	.	.
8a	8e	8c#	4.r
8g#	4d	4B	.
8b	.	.	.
8d	8B	8G#	8GG#
=37	=37	=37	=37
8A	8A	8A	8AA
8c#	8c#	8c#	8C#
8e	8e	8e	8E
8a	8a	8a	8A
8cc#	8cc#	8cc#	8c#
8ee	8ee	8ee	8e
=38	=38	=38	=38
4aa	4aa	4a	4a
4.r	2r	2r	2r
8a	.	.	.
=39	=39	=39	=39
4dd	8A	8F#	4F#
.	8d	8A	.
8dd	8f#	8d	2r
8dd	8a	8f#	.
8cc#	8g	8e	.
8dd	8f#	8d	.
=40	=40	=40	=40
8dd	8B	8G	4G
8b	8d	8B	.
8b	8g	8d	2r
4b	8b	8g	.
.	8g	8e	.
8b	8f#	8d	.
=41	=41	=41	=41
8a	8e	8c#	4AA
8cc#	8b	8g	.
8dd	8a	8f#	2r
8ee	8g	8e	.
8ff#	8f#	8d	.
8gg	8e	8c#	.
=42	=42	=42	=42
4.gg	4.e	4.c#	4.BB
8ff#	8f#	8d	4.r
8r	4r	4r	.
8a	.	.	.
=43	=43	=43	=43
4dd	2.r	8A	8FF#
.	.	8d	8AA
8dd	.	8f#	8D
8dd	.	8a	8F#
8cc#	.	8g	8E
8dd	.	8f#	8D
=44	=44	=44	=44
8dd	8B	8G	8GG
8b	8d	8B	8BB
8b	8g	8d	8D
4b	8b	8g	8G
.	8g	8e	8E
8b	8f#	8d	8D
=45	=45	=45	=45
8a	4.e	8c#	8C#
8cc#	.	8B	8G
8dd	.	8A	8F#
8ee	[4.A	8G	8E
8ff#	.	8F#	8D
8gg	.	8E	8C#
=46	=46	=46	=46
8ff#	8A]	4F#	4D
8dd	8d	.	.
8a	8f#	8r	8r
8gg	8A	4A	4C#
8ee	8e	.	.
8a	8g	8r	8r
=47	=47	=47	=47
8ff#	8A	4A	4D
8dd	8d	.	.
8a	8f#	8r	8r
8gg	8A	4A	4C#
8ee	8e	.	.
8a	8g	8r	8r
=48	=48	=48	=48
8ff#	4.f#	4.A	4D
8dd	.	.	.
8aa	.	.	8r
8aa	4.dd	[4.d	4F#
8aa	.	.	.
8aa	.	.	8r
=49	=49	=49	=49
8aa	2.b	4d]	2.G
8gg#	.	.	.
8gg	.	2r	.
8ff#	.	.	.
8ff	.	.	.
8ee	.	.	.
=50	=50	=50	=50
2.dd	8a	8f#	4A
.	8a	8f#	.
.	8a	8f#	2r
.	8a	8f#	.
.	8g	8e	.
.	8f#	8d	.
=51	=51	=51	=51
2a	8e	8c#	4AA
.	8g	8e	.
.	8f#	8d	2r
.	8e	8c#	.
8b	8e	8c#	.
8g	8e	8c#	.
=52	=52	=52	=52
8f#	8f#	4d	4D
4r	4r	.	.
.	.	8r	2r
4ee	8a	4.c#	.
.	8b	.	.
8ee#	8g	.	.
=53	=53	=53	=53
8ff#	8f#	4d	4.r
4r	4r	.	.
.	.	2r	.
4gg	4ee	.	8AA
.	.	.	8BB
8gg#	8ee#	.	8GG
=54	=54	=54	=54
8aa	4ff#	4d	4FF#
8ddd	.	.	.
8ccc#	2r	2r	2r
8ccc	.	.	.
8bb	.	.	.
8aa#	.	.	.
=55	=55	=55	=55
[2.bb	8r	2.d	2.G
.	8bb	.	.
.	8aa	.	.
.	8gg	.	.
.	8ff#	.	.
.	8ee	.	.
=56	=56	=56	=56
8bb]	2.dd#	2.a 2.B	2.F#
8ccc	.	.	.
8bb	.	.	.
8aa	.	.	.
8gg	.	.	.
8ff#	.	.	.
=57	=57	=57	=57
8r	8r	4g	4E
8aa	8ff#	.	.
8gg	8ee	8r	8r
8r	8r	4e	4C#
8bb	8gg	.	.
8gg	8ee	8r	8r
=58	=58	=58	=58
8r	8r	4A	4D
8gg	8ee	.	.
8ff#	8dd	8r	8r
8r	8r	4d	4FF#
8aa	8ff#	.	.
8ff#	8a	8r	8r
=59	=59	=59	=59
8ff#	4b	4d	4GG
8ee	.	.	.
8bb	8g	8r	8r
8bb	8g	8c#	4AA
8aa	8f#	8d	.
8cc#	8e	8e	8r
=60	=60	=60	=60
8dd	4.d	4f#	[2.DD
8a	.	.	.
8a	.	8r	.
8a	4.A	4.F#	.
8a	.	.	.
8a	.	.	.
=61	=61	=61	=61
8a	4.B	4.G	2.DD_
8g	.	.	.
8g	.	.	.
8g	4.c#	4.E	.
8b	.	.	.
8g	.	.	.
=62	=62	=62	=62
8f#	4.d	4.A	2.DD_
8f#	.	.	.
8f#	.	.	.
8f#	4.A	4.F#	.
8f#	.	.	.
8f#	.	.	.
=63	=63	=63	=63
8f#	4.B	2.G	2.DD_
8e	.	.	.
8e	.	.	.
8e	4c#	.	.
8a	.	.	.
8c#	8e	.	.
=64	=64	=64	=64
4d	4d	4F#	4DD]
8r	8r	8r	8r
8e	4c#	4.G	4AA
8a	.	.	.
8c#	8e	.	8r
=65	=65	=65	=65
4d	4d	4F#	4DD
8r	8r	8r	8r
8e	4c#	4.G	4AA
8a	.	.	.
8c#	8e	.	8r
=66	=66	=66	=66
4d	4d	4F#	4DD
4.r	2r	2r	2r
8dd	.	.	.
=67	=67	=67	=67
8gg	4.dd	4.b-	8g
8ff#	.	.	8g
8gg	.	.	8g
4aa	4.ff#	4.cc	8g
.	.	.	8g
8ddd	.	.	8g
=68	=68	=68	=68
8gg	8gg	4b-	8g
4.r	4.r	.	4.r
.	.	4r	.
8G	8G	8G	8GG
8A	8A	8A	8AA
=69	=69	=69	=69
8B-	8B-	8B-	8BB-
8c	8c	8c	8C
8d	8d	8d	8D
8e-	8e-	8e-	8E-
8f	8f	8f	8F
8g	8g	8g	8G
=70	=70	=70	=70
4a-	4a-	4a-	4A-
4.r	2r	2r	2r
8b-	.	.	.
=71	=71	=71	=71
8ee-	4.b-	4.g	8e-
8dd	.	.	8e-
8ee-	.	.	8e-
4ff	4.dd	4.a-	8e-
.	.	.	8e-
8bb-	.	.	8e-
=72	=72	=72	=72
8ee-	4ee-	4g	8e-
4.r	.	.	4.r
.	4r	4r	.
8cc	8cc	8cc	8c
8b-	8b-	8b-	8B-
=73	=73	=73	=73
8a-	8a-	8a-	8A-
8g	8g	8g	8G
8f	8f	8f	8F
8e-	8e-	8e-	8E-
8d	8d	8d	8D
8c	8c	8c	8C
=74	=74	=74	=74
4B	4B	4B	4BB
4.r	2r	2r	2r
8g	.	.	.
=75	=75	=75	=75
8cc	4.g	4.e-	8c
8b	.	.	8c
8cc	.	.	8c
4dd	4.b	4.f	8c
.	.	.	8c
8gg	.	.	8c
=76	=76	=76	=76
4cc	4cc	4e-	4.c
4.r	4.r	4.r	.
.	.	.	4r
8c	8c	8c	8C
=77	=77	=77	=77
8c	8c	8c	8C
8B	8B	8B	8BB
8B	8B	8B	8BB
8B	8B	8B	8BB
8B-	8B-	8B-	8BB-
8B-	8B-	8B-	8BB-
=78	=78	=78	=78
4A	4A	4A	4AA
4.r	2r	2r	2r
8a	.	.	.
=79	=79	=79	=79
8dd	4.a	4.f	8d
8cc#	.	.	8d
8dd	.	.	8d
4ee	4.cc#	4.g	8d
.	.	.	8d
8aa	.	.	8d
=80	=80	=80	=80
4dd	4dd	4f	4d
4.r	4.r	4.r	4.r
8d	8d	8d	8D
=81	=81	=81	=81
8d	8d	8d	8D
8c#	8c#	8c#	8C#
8c#	8c#	8c#	8C#
8c#	8c#	8c#	8C#
8c	8c	8c	8C
8c	8c	8c	8C
=82	=82	=82	=82
4B	4B	4B	4BB
2r	4.r	2r	2r
.	8b	.	.
=83	=83	=83	=83
2.r	8ee	4.r	4r
.	8dd#	.	.
.	8ee	.	8e
.	4ff#	4b	8e
.	.	.	8d#
.	8bb	8f#	8d
=84	=84	=84	=84
2.r	4ee	8g#	8d
.	.	8a	8c#
.	8aa	8e	8c
.	4dd	8f#	8c
.	.	8g	8B
.	8gg	8d	8B
=85	=85	=85	=85
2.r	8gg	4.c	4.A
.	8ff#	.	.
.	8ff#	.	.
.	8ff#	4.B	4.G
.	8ee	.	.
.	8ee	.	.
=86	=86	=86	=86
2.r	8ee	4A	4F#
.	8dd#	.	.
.	8ee	8G	8E
.	8ff#	4F#	4.D#
.	8dd#	.	.
.	8a	8f#	.
=87	=87	=87	=87
2.r	8g#	8e	[2.E
.	8b	8g#	.
.	8a	8f#	.
.	8cc	8a	.
.	8b	8g#	.
.	8dd	8b	.
=88	=88	=88	=88
2r	8cc	8a	2.E]
.	8ee	8cc	.
.	8dd	8b	.
.	8ff	8dd	.
8r	8ee	8cc	.
8ee	8dd	8b	.
=89	=89	=89	=89
8aa	8cc	4a	4AA
8gg#	8ee	.	.
8aa	8ee	8a	2r
4bb	4.ee	8a	.
.	.	8g#	.
8eee	.	8g	.
=90	=90	=90	=90
4aa	8ee	4f#	2.r
.	8dd#	.	.
8ddd	8dd	8b	.
4gg	8dd	4e	.
.	8cc#	.	.
8ccc	8cc	8a	.
=91	=91	=91	=91
[2.ff#	8cc	2.d#	2r
.	8a	.	.
.	8b	.	.
.	8cc	.	.
.	8b	.	8r
.	8a	.	8BB
=92	=92	=92	=92
4ff#]	4.g	4e	8E
.	.	.	8D#
4ee	.	2r	8E
.	[4.a	.	4F#
8dd#	.	.	.
[8ff#	.	.	8B
=93	=93	=93	=93
8ff#]	8a]	2r	4.E
8ee	8g	.	.
4gg	4b	.	.
.	.	.	4.D
8ff#	8a	8r	.
[8aa	[8cc	8f#	.
=94	=94	=94	=94
8aa]	8cc]	8d	4.G
8gg	8b	8d	.
4bb	4dd	4.r	.
.	.	.	4.F#
8aa#	8cc#	.	.
[8ccc#	[8ee	8F#	.
=95	=95	=95	=95
8ccc#]	8ee]	8f#	4.BB
8bb	8dd	8f#	.
4ddd	4ff#	4.r	.
.	.	.	4.AA
8ccc#	8ee	.	.
[8eee	[8gg	8a	.
=96	=96	=96	=96
8eee]	8gg]	8A	4.D
8ddd	8ff#	8A	.
4ccc	4aa	8d	.
.	.	8d	4G
8bb	8gg	8d	.
[8ddd	8dd	8G	8BB
=97	=97	=97	=97
8ddd]	2.ee	4G	4.C
8ccc	.	.	.
4bb	.	2r	.
.	.	.	4.C#
8aa	.	.	.
8gg	.	.	.
=98	=98	=98	=98
4ff#	4dd	4r	[2.D
8dd	8a	8f#	.
4.cc#	8b-	8g	.
.	8a	8f#	.
.	8g	8g	.
=99	=99	=99	=99
4.dd	4f#	4a	2.D_
.	8a	8dd	.
4.cc#	8b-	8g	.
.	8a	8f#	.
.	8g	8g	.
=100	=100	=100	=100
4.dd	4f#	4a	2.D_
.	8a	8dd	.
4.cc#	8b-	8g	.
.	8a	8f#	.
.	8g	8g	.
=101	=101	=101	=101
8dd	8f#	4f#	4D]
8g#	8e#	.	.
8a	8f#	8r	2r
8r	8r	4d	.
8a#	8f#	.	.
8b	8g	8r	.
=102	=102	=102	=102
8r	8r	4d	2.r
8b	8g#	.	.
8cc	8a	8r	.
8r	8r	4d	.
8cc#	8a#	.	.
8dd	8b	8r	.
=103	=103	=103	=103
8r	8r	4d	2.r
8dd#	8b	.	.
8ee	8cc	8r	.
8r	8r	4d	.
8dd#	8b	.	.
8ee	8cc	8r	.
=104	=104	=104	=104
4.r	4.r	4d	2.r
.	.	2r	.
4ee	4cc	.	.
8r	8r	.	.
=105	=105	=105	=105
4.r	4.r	4d	2.r
.	.	2r	.
4ee	4cc	.	.
8r	8r	.	.
=106	=106	=106	=106
2r	2.r	2.r	2.r
8r	.	.	.
8d	.	.	.
=107	=107	=107	=107
8g	8d 8B	4.r	8GG
8f#	8d 8B	.	8G
8g	8B 8d	.	8G
4a	4.d 4.c	4.f#	8G
.	.	.	8G
8dd	.	.	8G
=108	=108	=108	=108
8g	8d 8B	8g	8GG
8f#	8d 8B	4r	8G
8g	8B 8d	.	8G
4a	4.d 4.c	4.f#	8G
.	.	.	8G
8dd	.	.	8G
=109	=109	=109	=109
8g	8d 8B	8g	8GG
8f#	8d 8B	4r	8G
8g	8d 8B	.	8G
4cc	4e 4c	4.g	4E
8ee	8g	.	8C
=110	=110	=110	=110
8dd	4G	8b	4BB
8ff#	.	2r	.
8gg	2r	.	2r
8bb	.	.	.
4r	.	.	.
.	.	8r	.
=111	=111	=111	=111
8dd	8b	2.r	2.r
16ee	16cc	.	.
16ff#	16dd	.	.
16gg	16ee	.	.
16aa	16ff#	.	.
4bb	4gg	.	.
8aa	8ff#	.	.
=112	=112	=112	=112
8gg	8ee	2.r	2.r
8ff#	8dd	.	.
8ee	8cc	.	.
8dd	8b	.	.
8cc	8a	.	.
8b	8g	.	.
=113	=113	=113	=113
4a	4f#	8D	2.r
.	.	8d	.
8b	8g	8d	.
8dd	8b	8d	.
8cc	8a	8d	.
8b	8g	8d	.
=114	=114	=114	=114
4a	4f#	8D	2r
.	.	8d	.
8b	8g	8c#	.
8a	8f#	4d	.
4r	4r	.	8r
.	.	8r	8D
=115	=115	=115	=115
4r	8B	8r	8G
.	8A	8d	8F#
8g	8B	8d	8G
8g	4c	4d	4A
8f#	.	.	.
8cc	8A	8F#	8d
=116	=116	=116	=116
8b	8B	8G	8G
8r	8A	8d	8F#
8g	8B	8d	8G
8g	4c	4d	4A
8f#	.	.	.
8cc	8A	8F#	8d
=117	=117	=117	=117
4b	4B	8G	8G
.	.	8A	8F#
8dd	8b	8B	8G
8dd	8b	8B	8G
8cc	8a	8c	8A
8b	8g	8d	8B
=118	=118	=118	=118
8a	4e	8e	8c
8g#	.	8e	8B
8a	8r	8e	8c
4b	4.g#	4.e	4.d
8ee	.	.	.
=119	=119	=119	=119
8a	8a	8e	8c
8g#	4r	8e	8B
8a	.	8e	8c
4b	4.g#	4.e	4.d
8ee	.	.	.
=120	=120	=120	=120
8a	8a	8e	8c
8g#	4r	8e	8B
8a	.	8e	8c
4b	4.g#	4.e	4.d
8ee	.	.	.
=121	=121	=121	=121
8a	4a	8e	8c
8g#	.	8e	8B
8a	8r	8e	8c
4cc	4f#	4.d	4A
8b	8g	.	8G
=122	=122	=122	=122
4.a	8g	4.e	4.c
.	8g	.	.
.	8g	.	.
8b-	8g	4.c#	4.c#
8a	8f#	.	.
8b-	8g	.	.
=123	=123	=123	=123
8a	4f#	4d	4d
8dd	.	.	.
8dd	8f#	4.r	4.r
8cc#	8e	.	.
8ee	8g	.	.
8gg	8c#	8C#	8CC#
=124	=124	=124	=124
8ff#	8d	8D	8DD
8f#	8f#	8F#	8FF#
8a	8a	8A	8AA
8dd	8dd	8d	8D
8ff#	8ff#	8f#	8F#
8aa	8aa	8a	8A
=125	=125	=125	=125
4ddd	4ddd	4dd	4d
4.r	2r	2r	2r
8dd	.	.	.
=126	=126	=126	=126
4gg	8d	8B	4BB
.	8g	8d	.
8gg	8b	8g	2r
8gg	8dd	8b	.
8ff#	8cc	8a	.
8gg	8b	8g	.
=127	=127	=127	=127
8gg	8e	8c	4C
8ee	8g	8e	.
8ee	8cc	8g	2r
4ee	8ee	8cc	.
.	8cc	8a	.
8ee	8b	8g	.
=128	=128	=128	=128
8dd	8a	8f#	4D
8ff#	8ee	8cc	.
8gg	8dd	8b	2r
8aa	8cc	8a	.
8bb	8b	8g	.
8ccc	8a	8f#	.
=129	=129	=129	=129
4.ccc	4.a	4.f#	4.E
8bb	8b	8g	4.r
8r	4r	4r	.
8dd	.	.	.
=130	=130	=130	=130
4gg	2.r	8d	8BB
.	.	8g	8D
8gg	.	8b	8G
8gg	.	8dd	8B
8ff#	.	8cc	8A
8gg	.	8b	8G
=131	=131	=131	=131
8gg	8e	8c	8C
8ee	8g	8e	8E
8ee	8cc	8g	8G
4ee	8ee	8cc	8c
.	8cc	8a	8A
8ee	8b	8g	8G
=132	=132	=132	=132
8dd	4.a	8f#	8F#
8ff#	.	8e	8c
8gg	.	8d	8B
8aa	[4.d	8c	8A
8bb	.	8B	8G
8ccc	.	8A	8F#
=133	=133	=133	=133
8bb	8d]	4B	4G
8gg	8g	.	.
8dd	8b	8r	8r
8ccc	8d	4d	4F#
8aa	8a	.	.
8dd	8cc	8r	8r
=134	=134	=134	=134
8bb	8d	4d	4G
8gg	8g	.	.
8dd	8b	8r	8r
8ccc	8d	4d	4F#
8aa	8a	.	.
8dd	8cc	8r	8r
=135	=135	=135	=135
8bb	4.b	4.d	4G
8dd	.	.	.
8ddd	.	.	8r
8ddd	4.gg	8G	4.BB
8ddd	.	8g	.
8ddd	.	8g	.
=136	=136	=136	=136
8ddd	2.ee	4g	2.C
8ccc#	.	.	.
8ccc	.	2r	.
8bb	.	.	.
8bb-	.	.	.
8aa	.	.	.
=137	=137	=137	=137
2.gg	8dd	8b	4D
.	8dd	8b	.
.	8dd	8b	2r
.	8dd	8b	.
.	8cc	8a	.
.	8b	8g	.
=138	=138	=138	=138
2dd	8a	8f#	4D
.	8cc	8a	.
.	8b	8g	2r
.	8a	8f#	.
8ee	8a	8f#	.
8cc	8a	8f#	.
=139	=139	=139	=139
4b	4g	4g	4G
8r	8r	8r	2r
4aa	8dd	4.f#	.
.	8ee	.	.
8aa#	8cc	.	.
=140	=140	=140	=140
4bb	4b	4g	2.r
8r	8r	8r	.
4.ff#	8b	4.d#	.
.	8cc	.	.
.	8a	.	.
=141	=141	=141	=141
8gg	4g	4e	2.r
4r	.	.	.
.	8r	8r	.
4dd	8g	4.B	.
.	8a	.	.
8dd#	8f	.	.
=142	=142	=142	=142
8ee	8e	8c	2.r
4r	4r	4r	.
4.b	4.g#	8e	.
.	.	8f	.
.	.	8d	.
=143	=143	=143	=143
8cc	8a	8c	4.r
4r	4r	2r	.
4.a	4.f#	.	8D
.	.	.	8E
.	.	8r	8C
=144	=144	=144	=144
8b	2.g	4.d	2.BB
8gg	.	.	.
8ff#	.	.	.
8ff	.	4.g	.
8ee	.	.	.
8dd#	.	.	.
=145	=145	=145	=145
8r	8r	4e	4C
8dd#	8d#	.	.
8ee	8e	8r	8r
8r	8r	4e	4C
8aa	8a	.	.
8gg#	8g#	8r	8r
=146	=146	=146	=146
8r	8r	4e	4C
8bb	8b	.	.
8aa	8a	8r	8r
8r	8r	4e	4C
8ccc	8cc	.	.
8bb	8b	8r	8r
=147	=147	=147	=147
8r	8r	4e	4C
8bb	8b	.	.
8aa	8a	8r	8r
8r	8r	4e	4C#
8aa	8a	.	.
8gg	8g	8r	8r
=148	=148	=148	=148
4ff#	8dd	4d	[2.D
.	8cc#	.	.
2r	8dd	8dd	.
.	4ee	8dd	.
.	.	8cc#	.
.	8aa	8cc	.
=149	=149	=149	=149
2r	4dd	8cc	2.D_
.	.	8b	.
.	8gg	8b	.
.	4cc	8b	.
8r	.	8a	.
8dd	8dd	8f#	.
=150	=150	=150	=150
8gg	4b	4g	2.D_
8ff#	.	.	.
8gg	8gg	4.r	.
4aa	8gg	.	.
.	8ff#	.	.
8ddd	8ff	8b	.
=151	=151	=151	=151
4gg	8ff	4cc	2.D_
.	8ee	.	.
8ccc	8ee	8a	.
4ff#	8ee	4b	.
.	8dd#	.	.
8bb	8dd	8g#	.
=152	=152	=152	=152
4ee	8dd	4a	2.D_
.	8cc#	.	.
8aa	8cc	8f#	.
4dd	8cc	4g	.
.	8b	.	.
8gg	8dd	8b	.
=153	=153	=153	=153
8gg	4cc	4a	4D]
8ff#	.	.	.
8ee	8b	8g	4.r
8ee	4.a	4.f#	.
8dd	.	.	.
8cc	.	.	8DD
=154	=154	=154	=154
4b	4b	4g	8GG
.	.	.	8FF#
2r	8b	8g	8GG
.	8cc	8g	4AA
.	8b	8f#	.
.	8cc	8f#	8D
=155	=155	=155	=155
2.r	4b	8f#	4GG
.	.	8e	.
.	8ee	8e	8C
.	4a	8e	4FF#
.	.	8d	.
.	8dd	8d	8BB
=156	=156	=156	=156
2r	4g	8d	4EE
.	.	8c	.
.	8cc	8c	8AA
.	4f#	8c	4DD
8r	.	8B	.
8B	8b	8B	8GG
=157	=157	=157	=157
8A	8e	8c	8CC
8c	8e	8A	8CC
8e	8e	8A	8CC
8a	8e	8A	8CC
8cc	8e	8A	8CC
8ee	8e	8A	8CC
=158	=158	=158	=158
8c#	8g 8B-	8e	8CC#
8e	8B- 8g	8e	8CC#
8g	8g 8B-	8e	8CC#
8b-	8g 8B-	8e	8CC#
8cc#	8B- 8g	8e	8CC#
8ee	8g 8B-	8e	8CC#
=159	=159	=159	=159
8d	8g 8B	8d	8DD
8g	8g 8B	8d	8DD
8b	8g 8B	8d	8DD
8dd	8g 8B	8d	8DD
8gg	8B 8g	8d	8DD
8bb	8g 8B	8d	8DD
=160	=160	=160	=160
4ddd	4A 4f#	4d	4DD
8r	8r	8r	8r
4ff#	4A 4f#	4c	4DD
8r	8r	8r	8r
=161	=161	=161	=161
8gg	4.G	4.B	[2.GG
8dd	.	.	.
8dd	.	.	.
8dd	4.d	4.B	.
8dd	.	.	.
8dd	.	.	.
=162	=162	=162	=162
8dd	4.e	4.c	2.GG_
8cc	.	.	.
8cc	.	.	.
8cc	4.f#	4.A	.
8ee	.	.	.
8cc	.	.	.
=163	=163	=163	=163
8b	4.g	4.d	2.GG_
8b	.	.	.
8b	.	.	.
8b	4.d	4.B	.
8b	.	.	.
8b	.	.	.
=164	=164	=164	=164
8b	4.e	2.c	2.GG_
8a	.	.	.
8a	.	.	.
8a	4f#	.	.
8dd	.	.	.
8f#	8a	.	.
=165	=165	=165	=165
4g	4g	4B	4GG]
8r	8r	2r	2r
8a	8f#	.	.
8cc	8a	.	.
8a#	8f#	.	.
=166	=166	=166	=166
4b	8g	2.r	2.r
.	4r	.	.
8r	.	.	.
8cc	8a	.	.
8ee	8cc	.	.
8cc#	8a#	.	.
=167	=167	=167	=167
8dd	8b	4.r	4.r
2r	2r	.	.
.	.	8A	8F#
.	.	8c	8A
8r	8r	8A#	8F#
=168	=168	=168	=168
2.r	2.r	8B	8G
.	.	4r	4r
.	.	8c	8A
.	.	8e	8c
.	.	8c#	8A#
=169	=169	=169	=169
2r	2.r	4d	4B
.	.	2r	2r
8r	.	.	.
8dd	.	.	.
=170	=170	=170	=170
8gg	8d 8b	4.r	8GG
8ff#	8d 8b	.	8G
8gg	8b 8d	.	8G
4aa	4.d 4.cc	4.f#	8G
.	.	.	8G
8ddd	.	.	8G
=171	=171	=171	=171
8gg	8b 8d	4g	8GG
8ff#	8b 8d	.	8G
8gg	8d 8b	8r	8G
4aa	4.cc 4.d	4.f#	8G
.	.	.	8G
8ddd	.	.	8G
=172	=172	=172	=172
8bb	4b 4d	4g	4G
8ggg	.	.	.
8ggg	2r	2r	2r
8ggg	.	.	.
8ggg	.	.	.
8ggg	.	.	.
=173	=173	=173	=173
8ggg	4b 4d	4g	4G
8ddd	.	.	.
8bbb	2r	2r	2r
8bbb	.	.	.
8bbb	.	.	.
8bbb	.	.	.
=174	=174	=174	=174
8bbb	4b 4d	4g	4G
8ggg	.	.	.
8dddd	2r	2r	2r
8dddd	.	.	.
8dddd	.	.	.
8dddd	.	.	.
=175	=175	=175	=175
4dddd	4b 4d	4g	4G
4.r	4.r	4.r	4.r
8B	8B	8B	8BB
=176	=176	=176	=176
8c	8c	8c	8C
8B	8B	8B	8BB
8c	8c	8c	8C
4A	4A	4A	4AA
8d	8d	8d	8D
=177	=177	=177	=177
8G	8G	8G	8GG
4r	4r	4r	4r
8a	4.c	4F#	4DD
8dd	.	.	.
8f#	.	8A	8r
=178	=178	=178	=178
8g	4B	4G	4GG
4r	.	.	.
.	8r	8r	8r
8a	4.c	4F#	4DD
8dd	.	.	.
8f#	.	8A	8r
=179	=179	=179	=179
4g	4B	4G	4GG
2r	2r	2r	2r
==	==	==	==
*-	*-	*-	*-
!!!RWG1: This file contains only pitch and duration data.
!!!RWG2: Transposing instruments are not transposed.
!!!RWG3: Spines may have incompatible meters.
!!!RWG4: Durations of rests and tied notes may be interpreted.
!!!RWG: Key is interpreted using the Humdrum key tool.
!!!GTL: 6 Quartetti ("Tost III") 
!!!AFT: stage1 
!!!END: 2000/12/07
!!format changes:
!!content changes:
!!public access: complete
!!!KEY: 1176729487
!!!EMD: Converted from MuseData to Humdrum Dec 16, 2000, by Andreas Kornstaedt using muse2kern.
